assets/efishery/centong.svg

<svg width="24" height="25" viewBox="0 0 24 25" fill="none" xmlns="http://www.w3.org/2000/svg">
<path fill-rule="evenodd" clip-rule="evenodd" d="M3.37166 6.34523C2.85887 6.14011 2.2769 6.38953 2.07179 6.90231C1.86668 7.4151 2.11609 7.99707 2.62888 8.20218L12.6289 12.2022C12.6788 12.2222 12.7294 12.2378 12.7803 12.2494L12.0794 14.6155C11.9163 15.1662 12.2509 15.6119 12.4503 15.8264C12.6893 16.0835 13.0225 16.3229 13.3892 16.5391C14.1328 16.9778 15.1695 17.4116 16.3262 17.7543C17.4829 18.0969 18.5887 18.2977 19.4512 18.3348C19.8765 18.3531 20.2863 18.3338 20.6269 18.2484C20.9108 18.1771 21.4342 17.9855 21.5974 17.4349L22.9436 12.89C22.9471 12.8781 22.9504 12.8661 22.9533 12.8541C23.0917 12.3201 22.7674 11.8891 22.5724 11.6794C22.3333 11.4222 22.0002 11.1829 21.6335 10.9666C20.8899 10.5279 19.8531 10.0941 18.6965 9.75147C17.5398 9.40885 16.434 9.20803 15.5715 9.17092C15.1461 9.15262 14.7364 9.17191 14.3958 9.25735C14.1119 9.32861 13.5884 9.52022 13.4253 10.0709L13.4187 10.0942L13.3472 10.3355L3.37166 6.34523ZM14.7351 11.9945C14.6441 11.9408 14.5551 11.8857 14.4692 11.8293L13.5786 14.8356C13.684 14.9394 13.8698 15.0811 14.1513 15.2472C14.7616 15.6072 15.6777 15.9978 16.7522 16.316C17.8267 16.6343 18.8078 16.8057 19.5157 16.8362C19.8422 16.8502 20.0752 16.8325 20.2201 16.8029L21.1107 13.7964C21.0077 13.7969 20.9029 13.7947 20.7971 13.7902C19.9346 13.7531 18.8288 13.5522 17.6721 13.2096C16.5155 12.867 15.4787 12.4332 14.7351 11.9945ZM20.8619 12.2914C20.8853 12.2924 20.9081 12.2932 20.9305 12.2939C20.9113 12.2822 20.8916 12.2704 20.8714 12.2585C20.2611 11.8985 19.3449 11.508 18.2704 11.1897C17.196 10.8714 16.2149 10.7 15.507 10.6695C15.4837 10.6685 15.4608 10.6677 15.4384 10.667C15.4577 10.6787 15.4774 10.6904 15.4975 10.7024C16.1078 11.0624 17.024 11.4529 18.0985 11.7712C19.173 12.0895 20.154 12.2609 20.8619 12.2914ZM21.6693 12.2305C21.6799 12.2244 21.6873 12.2222 21.6873 12.2222L21.6863 12.2232C21.6842 12.2245 21.6787 12.2271 21.6693 12.2305ZM14.8427 10.1948C14.8427 10.1948 14.8473 10.2006 14.8519 10.2093C14.8457 10.2008 14.8427 10.1948 14.8427 10.1948ZM20.3414 16.7669C20.3414 16.7669 20.3368 16.7702 20.3234 16.7752C20.334 16.769 20.3414 16.7669 20.3414 16.7669ZM13.4965 14.7393C13.4965 14.7393 13.5016 14.7452 13.5071 14.7561C13.4986 14.7446 13.4965 14.7393 13.4965 14.7393Z" fill="#1D1D1D"/>
</svg>

<svg viewBox="0 0 24 25" xmlns="http://www.w3.org/2000/svg">
  <path fill-rule="evenodd" clip-rule="evenodd" d="M3.372 6.345a1 1 0 1 0-.743 1.857l10 4c.05.02.1.036.151.047l-.7 2.367c-.164.55.17.996.37 1.21.24.258.573.497.94.713.743.439 1.78.873 2.936 1.215 1.157.343 2.263.544 3.125.58.425.02.835 0 1.176-.086.284-.07.807-.263.97-.813l1.347-4.545a.762.762 0 0 0 .01-.036c.138-.534-.187-.965-.382-1.175-.239-.257-.572-.496-.938-.712-.744-.44-1.78-.873-2.938-1.216-1.156-.342-2.262-.543-3.125-.58-.425-.018-.835 0-1.175.086-.284.072-.808.263-.97.814l-.007.023-.072.242-9.975-3.99zm11.363 5.65a6.553 6.553 0 0 1-.266-.166l-.89 3.007c.105.103.29.245.572.411.61.36 1.527.75 2.601 1.069 1.075.318 2.056.49 2.764.52.326.014.56-.003.704-.033l.89-3.007c-.102 0-.207-.001-.313-.006-.862-.037-1.968-.238-3.125-.58-1.157-.343-2.193-.777-2.937-1.216zm6.127.296.069.003a4.621 4.621 0 0 0-.06-.036c-.61-.36-1.526-.75-2.6-1.068-1.075-.319-2.056-.49-2.764-.52a5.882 5.882 0 0 0-.069-.003l.06.035c.61.36 1.526.75 2.6 1.07 1.075.317 2.056.489 2.764.52zm.807-.06c.01-.007.018-.009.018-.009v.001a.109.109 0 0 1-.018.007zm-6.826-2.036.009.014-.01-.014zm5.498 6.572s-.004.003-.018.008c.011-.006.018-.008.018-.008zm-6.845-2.028s.006.006.011.017a.09.09 0 0 1-.01-.017z"/>
</svg>
